images/ACH.svg

<svg height="250" viewBox="0 0 250 250" width="250" xmlns="http://www.w3.org/2000/svg" xmlns:xlink="http://www.w3.org/1999/xlink"><filter id="a" height="100%" width="100%" x="0%" y="0%"><feColorMatrix in="SourceGraphic" type="matrix" values="0 0 0 0 1 0 0 0 0 1 0 0 0 0 1 0 0 0 1 0"/></filter><mask id="b"><g filter="url(#a)"><image height="250" width="251" xlink:href="data:image/png;base64,iVBORw0KGgoAAAANSUhEUgAAAPsAAAD6CAYAAABnLjEDAAAABmJLR0QA/wD/AP+gvaeTAAACl0lEQVR4nO3TMY1CAQAFwQehwwz+XWAAFTQ0BAs0dz9hZxRss6dt123PAb/otu2+beeDQ4B/YnaIMDtEmB0izA4RZocIs0OE2SHC7BBhdogwO0SYHSLMDhFmhwizQ4TZIcLsEGF2iDA7RJgdIswOEWaHCLNDhNkhwuwQYXaIMDtEmB0izA4RZocIs0OE2SHC7BBhdogwO0SYHSLMDhFmhwizQ4TZIcLsEGF2iDA7RJgdIswOEWaHCLNDhNkhwuwQYXaIMDtEmB0izA4RZocIs0OE2SHC7BBhdogwO0SYHSLMDhFmhwizQ4TZIcLsEGF2iDA7RJgdIswOEWaHCLNDhNkhwuwQYXaIMDtEmB0izA4RZocIs0OE2SHC7BBhdogwO0SYHSLMDhFmhwizQ4TZIcLsEGF2iDA7RJgdIswOEWaHCLNDhNkhwuwQYXaIMDtEmB0izA4RZocIs0OE2SHC7BBhdogwO0SYHSLMDhFmhwizQ4TZIcLsEGF2iDA7RJgdIswOEWaHCLNDhNkhwuwQYXaIMDtEmB0izA4RZocIs0OE2SHC7BBhdogwO0SYHSLMDhFmhwizQ4TZIcLsEGF2iDA7RJgdIswOEWaHCLNDhNkhwuwQYXaIMDtEmB0izA4RZocIs0OE2SHC7BBhdogwO0SYHSLMDhFmhwizQ4TZIcLsEGF2iDA7RJgdIswOEWaHCLNDhNkhwuwQYXaIMDtEmB0izA4RZocIs0OE2SHC7BBhdogwO0SYHSLMDhFmhwizQ4TZIcLsEGF2iDA7RFy2vbc9jg4B/sTr6AAAAAAAAAAAAAAAAAAAAAAAAAAAAAAAAAAAAAAAAAAAAAAAAAAAAAAAAAAAAAAAAAAAAAAAAAAAAAAAAL70AWuTBlGvvsoqAAAAAElFTkSuQmCC"/></g></mask><clipPath id="c"><path d="m0 0h251v250h-251z"/></clipPath><mask id="d"><g filter="url(#a)"><image height="250" width="251" xlink:href="data:image/png;base64,iVBORw0KGgoAAAANSUhEUgAAAPsAAAD6CAYAAABnLjEDAAAABmJLR0QA/wD/AP+gvaeTAAABbElEQVR4nO3TQQ3CAAAEwStawL8iEnzwABWlJDujYD+7AQAAAAAAAAAAAAAAAAAAAAAAAAAAAAAAAAAAAAAAAAAAAAAAAAAAAAAAAAAAAAAAAAAAAAAAAAAAAAAAAAAAAAAAAAAAAAAAAAAAAAAAAAAAAAAAAAAAAAAAAAAAAAAAAAAAAAAAAAAAAAAAAAAAAAAAAAAAAAAAAAAAAAAAAAAAAAAAAAAAAAAAAAAAAAAAAAAAAAAAAAAAAAAAAAAAAAAAAAAAAAAAAAAAAAAAAAAAAAAAAAAAAAAAAAAAAAAAAAAAAAAAAAAAAAAAAAAAAPC/jm2PqyOAU722vY9tn4tDgHPdtz1vV1cAv2F2iDA7RJgdIswOEWaHCLNDhNkhwuwQYXaIMDtEmB0izA4RZocIs0OE2SHC7BBhdogwO0SYHSLMDhFmhwizQ4TZIcLsEGF2iDA7RJgdIswOEWaHCLNDhNkhwuwQYXaI+AKL4gRHUHIaYQAAAABJRU5ErkJggg=="/></g></mask><clipPath id="e"><path d="m0 0h251v250h-251z"/></clipPath><g clip-path="url(#c)" mask="url(#b)"><path d="m94.316406 157.394531c-3.421875 5.1875-5.179687 13.039063-5.179687 19.324219 0 4.433594.847656 8.5 2.433593 12.144531h68.664063v-45.648437c-7.328125-4.34375-16.457031-6.882813-26.546875-6.882813-17.519531 0-31.660156 9.398438-39.371094 21.0625zm-5.289062-102.839843v74.289062h.085937c6.246094-5.4375 22.632813-12.328125 39.824219-13.769531 12.148438-.792969 23.226562.828125 31.300781 3.589843v-64.109374l-35.785156-54.554688zm97.179687 39.574218v94.734375h61.980469zm-123.269531 94.734375v-94.734375l-61.980469 94.730469h61.976563zm0 0" fill="#050f66" fill-rule="evenodd"/></g><g clip-path="url(#e)" mask="url(#d)"><path d="m248.925781 221.847656c-.214843-.273437-.566406-.433594-.941406-.4375h-2.882813c-.492187 0-.933593.273438-1.09375.683594l-5.699218 14.367188-6.160156-14.390626c-.167969-.394531-.597657-.65625-1.078126-.65625h-2.828124c-.382813 0-.738282.167969-.953126.441407-.214843.277343-.261718.625-.121093.9375l8.59375 19.347656-.449219 1.324219c-1.058594 2.679687-2.773438 2.910156-4.296875 2.910156-.609375.015625-1.222656-.035156-1.824219-.148438-.347656-.089843-.722656-.027343-1.011718.164063-.289063.191406-.460938.492187-.460938.808594v1.605469c0 .460937.351562.859374.859375.980468.640625.144532 1.425781.214844 2.542969.214844 3.335937 0 6.699218-.652344 8.730468-5.398438l9.210938-21.824218c.132812-.3125.082031-.660156-.132812-.929688zm-50.527343 2.765625c0 2.5-1.214844 4.046875-7.269532 4.046875h-3.347656v-10.035156h3.550781c6.210938 0 7.070313 2.160156 7.070313 4.492188v1.496093zm2.144531-7.660156c-2.089844-1.410156-5.191407-2.097656-9.46875-2.097656h-7.324219c-.308594-.003907-.601562.101562-.820312.292969-.214844.191406-.335938.449218-.335938.71875v26.234374c0 .554688.515625 1.011719 1.152344 1.011719h2.882812c.636719 0 1.152344-.453125 1.152344-1.011719v-9.664062h3.292969c4.269531 0 7.355469-.648438 9.441406-1.980469 2.042969-1.304687 3.070313-3.242187 3.070313-5.773437v-1.675782c0-2.648437-1.019532-4.6875-3.042969-6.054687zm19.269531 21.644531c-1.917969.722656-3.984375 1.097656-6.070312 1.105469-3.234376 0-3.503907-1.152344-3.503907-2.230469v-1.164062c0-1.203125.347657-2.378906 4.550781-2.378906h5.023438zm2.75-16.070312c-1.457031-.996094-3.65625-1.480469-6.726562-1.480469-2.957032 0-5.128907.453125-6.621094 1.382813-1.617188 1.007812-2.4375 2.5625-2.4375 4.621093v.984375c0 .5625.515625 1.011719 1.152344 1.011719h2.566406c.636718 0 1.152344-.453125 1.152344-1.011719v-.910156c0-1.386719.292968-2.449219 3.980468-2.449219 3.863282 0 4.183594 1.15625 4.183594 2.449219v3.214844h-5.074219c-7.789062 0-9.425781 3.285156-9.425781 6.035156v1.097656c0 1.902344.714844 3.378906 2.121094 4.378906 1.34375.960938 3.308594 1.445313 5.839844 1.445313 2.429687 0 5.007812-.414063 7.148437-1.125l.117187.347656c.140626.4375.59375.738281 1.109376.738281h1.933593c.308594 0 .601563-.105468.820313-.296874.214844-.1875.339844-.445313.339844-.714844v-15.191406c0-2.042969-.714844-3.523438-2.179688-4.527344zm-187.238281-7.117188h-2.617188c-.140625 0-.273437.046875-.371093.132813-.097657.085937-.152344.203125-.152344.324219v26.234374c0 .25.234375.457032.523437.457032h2.613281c.136719 0 .273438-.046875.371094-.132813.097656-.085937.152344-.203125.152344-.324219v-26.230468c0-.125-.054688-.242188-.152344-.328125-.097656-.089844-.230468-.136719-.371094-.136719zm91.992187 12.191406v14.5c0 .25.230469.457032.515625.457032h2.621094c.136719 0 .269531-.046875.367187-.132813.101563-.085937.15625-.203125.152344-.324219v-14.832031c0-.496093-.066406-1-.1875-1.523437 2.15625-1.078125 4.191406-1.625 6.050782-1.625 2.578124 0 3.832031 1.136718 3.832031 3.480468v14.5c0 .25.230469.457032.515625.457032h2.617187c.140625 0 .273438-.050782.371094-.136719.09375-.085937.148437-.199219.148437-.320313v-14.832031c0-3.546875-2.617187-5.664062-7.007812-5.664062-2.5 0-5.132812.621093-7.824219 1.84375-1.230469-1.207031-3.214843-1.84375-5.789062-1.84375-2.414063 0-4.746094.730469-6.445313 1.429687l-.21875-.859375c-.054687-.207031-.265625-.351562-.507812-.351562h-1.933594c-.140625-.003907-.273438.046875-.371094.128906-.097656.085937-.152344.203125-.152344.324219v19.824218c0 .25.230469.457032.523438.457032h2.613281c.136719 0 .269531-.046875.371094-.132813.097656-.085937.152344-.203125.148437-.324219v-16.578124c1.738282-.921876 3.734376-1.40625 5.765626-1.402344 2.574218 0 3.824218 1.136718 3.824218 3.480468zm29.289063 14.519532-.527344 1.511718c-1.136719 2.898438-3.027344 3.292969-4.894531 3.292969-.671875.023438-1.347656-.03125-2.003906-.160156-.15625-.039063-.324219-.011719-.453126.074219-.128906.085937-.203124.21875-.203124.359375v1.605469c0 .207031.152343.382812.378906.441406.589844.132812 1.324218.195312 2.386718.195312 2.894532 0 6.140626-.386718 8.128907-5.035156l9.214843-21.824219c.058594-.140625.035157-.296875-.0625-.417969-.09375-.121093-.253906-.195312-.421874-.195312h-2.882813c-.21875 0-.417969.125-.488281.308594l-6.28125 15.824218-6.773438-15.835937c-.074218-.179687-.269531-.296875-.484375-.296875h-2.832031c-.167969 0-.328125.074219-.425781.199219-.097657.121093-.117188.28125-.054688.421875zm-149.007813-8.855469 5.699219-13.605469 5.738281 13.605469zm7.753906-17.566406c-.078124-.175781-.273437-.292969-.488281-.292969h-3.035156c-.21875 0-.410156.117188-.484375.292969l-11.3085938 26.238281c-.0625.140625-.03906245.296875.0585938.417969.09375.125.253906.199219.421875.199219h2.832031c.21875 0 .410156-.117188.484375-.296876l2.652344-6.335937h13.667969l2.65625 6.335937c.074218.179688.269531.300782.488281.300782h2.878906c.171875 0 .332031-.074219.429688-.195313.097656-.125.117187-.28125.058593-.421875zm35.945313 5.902343c-6.140625 0-9.519531 2.0625-9.519531 5.808594v9.695313c0 3.75 3.375 5.808593 9.519531 5.808593 5.820313 0 9.160156-2.113281 9.160156-5.804687v-2.371094c0-.25-.234375-.453125-.519531-.453125h-2.566406c-.136719 0-.269532.046875-.367188.132813-.097656.082031-.152344.199219-.152344.320312v1.96875c0 3.183594-3.480468 3.664063-5.554687 3.664063-3.945313 0-5.867187-1.199219-5.867187-3.664063v-8.890625c0-2.566406 1.753906-3.664062 5.867187-3.664062 3.738281 0 5.554687 1.203125 5.554687 3.664062v2.332032c0 .25.230469.457031.519532.457031h2.566406c.285156 0 .519531-.203125.519531-.457031v-2.730469c0-3.695313-3.335937-5.8125-9.160156-5.8125zm53.457031 9.511719h-11.421875v-2.972656c0-2.859375 1.59375-4.023437 5.5-4.023437 3.929688 0 5.921875 1.351562 5.921875 4.023437zm-5.921875-9.511719c-2.847656 0-5.097656.527344-6.691406 1.578126-1.613281 1.0625-2.464844 2.640624-2.464844 4.558593v9.039063c0 1.921875.851563 3.496094 2.464844 4.558594 1.59375 1.046874 3.84375 1.578124 6.691406 1.578124 5.996094 0 9.574219-2.292968 9.574219-6.136718v-1.238282c.003906-.121093-.050781-.238281-.148438-.324218-.097656-.085938-.230468-.132813-.367187-.132813h-2.617187c-.140626 0-.273438.046875-.367188.132813-.097656.085937-.152344.203125-.152344.324218v.835938c0 2.671875-1.992187 4.027344-5.921875 4.027344-3.90625 0-5.5-1.167969-5.5-4.027344v-2.820312h14.558594c.136719 0 .269531-.050782.367187-.136719.097657-.085938.152344-.199219.148438-.320313v-5.355468c0-3.847657-3.578125-6.136719-9.574219-6.136719zm-21.933593 0c-2.660157 0-5.234376.761719-7.121094 1.441407v-7.175781c0-.121094-.054688-.238282-.152344-.324219-.101562-.085938-.234375-.132813-.371094-.132813h-2.617187c-.285157 0-.519531.203125-.519531.457032v26.234374c0 .25.234374.457032.519531.457032h2.617187c.140625 0 .273438-.046875.371094-.132813.097656-.085937.152344-.203125.152344-.324219v-16.324218c1.367187-.558594 4.222656-1.582032 6.648437-1.582032 2.542969 0 3.722657 1 3.722657 3.15625v14.753907c0 .25.234374.457031.519531.457031h2.617187c.136719 0 .269532-.050781.367188-.136719.097656-.085937.152344-.199219.148437-.320312v-15.164063c0-3.441406-2.449219-5.335937-6.902343-5.335937zm0 0" fill="#050f66" fill-rule="evenodd"/></g></svg>

<svg xmlns="http://www.w3.org/2000/svg" xmlns:xlink="http://www.w3.org/1999/xlink" width="250px" height="250px" viewBox="0 0 250 250" version="1.1">
<defs>
<filter id="alpha" filterUnits="objectBoundingBox" x="0%" y="0%" width="100%" height="100%">
  <feColorMatrix type="matrix" in="SourceGraphic" values="0 0 0 0 1 0 0 0 0 1 0 0 0 0 1 0 0 0 1 0"/>
</filter>
<image id="image8" width="251" height="250" xlink:href="data:image/png;base64,iVBORw0KGgoAAAANSUhEUgAAAPsAAAD6CAYAAABnLjEDAAAABmJLR0QA/wD/AP+gvaeTAAACl0lEQVR4nO3TMY1CAQAFwQehwwz+XWAAFTQ0BAs0dz9hZxRss6dt123PAb/otu2+beeDQ4B/YnaIMDtEmB0izA4RZocIs0OE2SHC7BBhdogwO0SYHSLMDhFmhwizQ4TZIcLsEGF2iDA7RJgdIswOEWaHCLNDhNkhwuwQYXaIMDtEmB0izA4RZocIs0OE2SHC7BBhdogwO0SYHSLMDhFmhwizQ4TZIcLsEGF2iDA7RJgdIswOEWaHCLNDhNkhwuwQYXaIMDtEmB0izA4RZocIs0OE2SHC7BBhdogwO0SYHSLMDhFmhwizQ4TZIcLsEGF2iDA7RJgdIswOEWaHCLNDhNkhwuwQYXaIMDtEmB0izA4RZocIs0OE2SHC7BBhdogwO0SYHSLMDhFmhwizQ4TZIcLsEGF2iDA7RJgdIswOEWaHCLNDhNkhwuwQYXaIMDtEmB0izA4RZocIs0OE2SHC7BBhdogwO0SYHSLMDhFmhwizQ4TZIcLsEGF2iDA7RJgdIswOEWaHCLNDhNkhwuwQYXaIMDtEmB0izA4RZocIs0OE2SHC7BBhdogwO0SYHSLMDhFmhwizQ4TZIcLsEGF2iDA7RJgdIswOEWaHCLNDhNkhwuwQYXaIMDtEmB0izA4RZocIs0OE2SHC7BBhdogwO0SYHSLMDhFmhwizQ4TZIcLsEGF2iDA7RJgdIswOEWaHCLNDhNkhwuwQYXaIMDtEmB0izA4RZocIs0OE2SHC7BBhdogwO0SYHSLMDhFmhwizQ4TZIcLsEGF2iDA7RFy2vbc9jg4B/sTr6AAAAAAAAAAAAAAAAAAAAAAAAAAAAAAAAAAAAAAAAAAAAAAAAAAAAAAAAAAAAAAAAAAAAAAAAAAAAAAAAL70AWuTBlGvvsoqAAAAAElFTkSuQmCC"/>
<mask id="mask0">
  <g filter="url(#alpha)">
<use xlink:href="#image8"/>
  </g>
</mask>
<clipPath id="clip1">
  <rect x="0" y="0" width="251" height="250"/>
</clipPath>
<g id="surface7" clip-path="url(#clip1)">
<path style=" stroke:none;fill-rule:evenodd;fill:rgb(1.960784%,5.882353%,40.000001%);fill-opacity:1;" d="M 94.316406 157.394531 C 90.894531 162.582031 89.136719 170.433594 89.136719 176.71875 C 89.136719 181.152344 89.984375 185.21875 91.570312 188.863281 L 160.234375 188.863281 L 160.234375 143.214844 C 152.90625 138.871094 143.777344 136.332031 133.6875 136.332031 C 116.167969 136.332031 102.027344 145.730469 94.316406 157.394531 Z M 89.027344 54.554688 L 89.027344 128.84375 L 89.113281 128.84375 C 95.359375 123.40625 111.746094 116.515625 128.9375 115.074219 C 141.085938 114.28125 152.164062 115.902344 160.238281 118.664062 L 160.238281 54.554688 L 124.453125 0 Z M 186.207031 94.128906 L 186.207031 188.863281 L 248.1875 188.863281 Z M 62.9375 188.863281 L 62.9375 94.128906 L 0.957031 188.859375 L 62.933594 188.859375 Z M 62.9375 188.863281 "/>
</g>
<image id="image15" width="251" height="250" xlink:href="data:image/png;base64,iVBORw0KGgoAAAANSUhEUgAAAPsAAAD6CAYAAABnLjEDAAAABmJLR0QA/wD/AP+gvaeTAAABbElEQVR4nO3TQQ3CAAAEwStawL8iEnzwABWlJDujYD+7AQAAAAAAAAAAAAAAAAAAAAAAAAAAAAAAAAAAAAAAAAAAAAAAAAAAAAAAAAAAAAAAAAAAAAAAAAAAAAAAAAAAAAAAAAAAAAAAAAAAAAAAAAAAAAAAAAAAAAAAAAAAAAAAAAAAAAAAAAAAAAAAAAAAAAAAAAAAAAAAAAAAAAAAAAAAAAAAAAAAAAAAAAAAAAAAAAAAAAAAAAAAAAAAAAAAAAAAAAAAAAAAAAAAAAAAAAAAAAAAAAAAAAAAAAAAAAAAAAAAAAAAAAAAAAAAAAAAAPC/jm2PqyOAU722vY9tn4tDgHPdtz1vV1cAv2F2iDA7RJgdIswOEWaHCLNDhNkhwuwQYXaIMDtEmB0izA4RZocIs0OE2SHC7BBhdogwO0SYHSLMDhFmhwizQ4TZIcLsEGF2iDA7RJgdIswOEWaHCLNDhNkhwuwQYXaI+AKL4gRHUHIaYQAAAABJRU5ErkJggg=="/>
<mask id="mask1">
  <g filter="url(#alpha)">
<use xlink:href="#image15"/>
  </g>
</mask>
<clipPath id="clip2">
  <rect x="0" y="0" width="251" height="250"/>
</clipPath>
<g id="surface14" clip-path="url(#clip2)">
<path style=" stroke:none;fill-rule:evenodd;fill:rgb(1.960784%,5.882353%,40.000001%);fill-opacity:1;" d="M 248.925781 221.847656 C 248.710938 221.574219 248.359375 221.414062 247.984375 221.410156 L 245.101562 221.410156 C 244.609375 221.410156 244.167969 221.683594 244.007812 222.09375 L 238.308594 236.460938 L 232.148438 222.070312 C 231.980469 221.675781 231.550781 221.414062 231.070312 221.414062 L 228.242188 221.414062 C 227.859375 221.414062 227.503906 221.582031 227.289062 221.855469 C 227.074219 222.132812 227.027344 222.480469 227.167969 222.792969 L 235.761719 242.140625 L 235.3125 243.464844 C 234.253906 246.144531 232.539062 246.375 231.015625 246.375 C 230.40625 246.390625 229.792969 246.339844 229.191406 246.226562 C 228.84375 246.136719 228.46875 246.199219 228.179688 246.390625 C 227.890625 246.582031 227.71875 246.882812 227.71875 247.199219 L 227.71875 248.804688 C 227.71875 249.265625 228.070312 249.664062 228.578125 249.785156 C 229.21875 249.929688 230.003906 250 231.121094 250 C 234.457031 250 237.820312 249.347656 239.851562 244.601562 L 249.0625 222.777344 C 249.195312 222.464844 249.144531 222.117188 248.929688 221.847656 Z M 198.398438 224.613281 C 198.398438 227.113281 197.183594 228.660156 191.128906 228.660156 L 187.78125 228.660156 L 187.78125 218.625 L 191.332031 218.625 C 197.542969 218.625 198.402344 220.785156 198.402344 223.117188 L 198.402344 224.613281 Z M 200.542969 216.953125 C 198.453125 215.542969 195.351562 214.855469 191.074219 214.855469 L 183.75 214.855469 C 183.441406 214.851562 183.148438 214.957031 182.929688 215.148438 C 182.714844 215.339844 182.59375 215.597656 182.59375 215.867188 L 182.59375 242.101562 C 182.59375 242.65625 183.109375 243.113281 183.746094 243.113281 L 186.628906 243.113281 C 187.265625 243.113281 187.78125 242.660156 187.78125 242.101562 L 187.78125 232.4375 L 191.074219 232.4375 C 195.34375 232.4375 198.429688 231.789062 200.515625 230.457031 C 202.558594 229.152344 203.585938 227.214844 203.585938 224.683594 L 203.585938 223.007812 C 203.585938 220.359375 202.566406 218.320312 200.542969 216.953125 Z M 219.8125 238.597656 C 217.894531 239.320312 215.828125 239.695312 213.742188 239.703125 C 210.507812 239.703125 210.238281 238.550781 210.238281 237.472656 L 210.238281 236.308594 C 210.238281 235.105469 210.585938 233.929688 214.789062 233.929688 L 219.8125 233.929688 Z M 222.5625 222.527344 C 221.105469 221.53125 218.90625 221.046875 215.835938 221.046875 C 212.878906 221.046875 210.707031 221.5 209.214844 222.429688 C 207.597656 223.4375 206.777344 224.992188 206.777344 227.050781 L 206.777344 228.035156 C 206.777344 228.597656 207.292969 229.046875 207.929688 229.046875 L 210.496094 229.046875 C 211.132812 229.046875 211.648438 228.59375 211.648438 228.035156 L 211.648438 227.125 C 211.648438 225.738281 211.941406 224.675781 215.628906 224.675781 C 219.492188 224.675781 219.8125 225.832031 219.8125 227.125 L 219.8125 230.339844 L 214.738281 230.339844 C 206.949219 230.339844 205.3125 233.625 205.3125 236.375 L 205.3125 237.472656 C 205.3125 239.375 206.027344 240.851562 207.433594 241.851562 C 208.777344 242.8125 210.742188 243.296875 213.273438 243.296875 C 215.703125 243.296875 218.28125 242.882812 220.421875 242.171875 L 220.539062 242.519531 C 220.679688 242.957031 221.132812 243.257812 221.648438 243.257812 L 223.582031 243.257812 C 223.890625 243.257812 224.183594 243.152344 224.402344 242.960938 C 224.617188 242.773438 224.742188 242.515625 224.742188 242.246094 L 224.742188 227.054688 C 224.742188 225.011719 224.027344 223.53125 222.5625 222.527344 Z M 35.324219 215.410156 L 32.707031 215.410156 C 32.566406 215.410156 32.433594 215.457031 32.335938 215.542969 C 32.238281 215.628906 32.183594 215.746094 32.183594 215.867188 L 32.183594 242.101562 C 32.183594 242.351562 32.417969 242.558594 32.707031 242.558594 L 35.320312 242.558594 C 35.457031 242.558594 35.59375 242.511719 35.691406 242.425781 C 35.789062 242.339844 35.84375 242.222656 35.84375 242.101562 L 35.84375 215.871094 C 35.84375 215.746094 35.789062 215.628906 35.691406 215.542969 C 35.59375 215.453125 35.460938 215.40625 35.320312 215.40625 Z M 127.316406 227.601562 L 127.316406 242.101562 C 127.316406 242.351562 127.546875 242.558594 127.832031 242.558594 L 130.453125 242.558594 C 130.589844 242.558594 130.722656 242.511719 130.820312 242.425781 C 130.921875 242.339844 130.976562 242.222656 130.972656 242.101562 L 130.972656 227.269531 C 130.972656 226.773438 130.90625 226.269531 130.785156 225.746094 C 132.941406 224.667969 134.976562 224.121094 136.835938 224.121094 C 139.414062 224.121094 140.667969 225.257812 140.667969 227.601562 L 140.667969 242.101562 C 140.667969 242.351562 140.898438 242.558594 141.183594 242.558594 L 143.800781 242.558594 C 143.941406 242.558594 144.074219 242.507812 144.171875 242.421875 C 144.265625 242.335938 144.320312 242.222656 144.320312 242.101562 L 144.320312 227.269531 C 144.320312 223.722656 141.703125 221.605469 137.3125 221.605469 C 134.8125 221.605469 132.179688 222.226562 129.488281 223.449219 C 128.257812 222.242188 126.273438 221.605469 123.699219 221.605469 C 121.285156 221.605469 118.953125 222.335938 117.253906 223.035156 L 117.035156 222.175781 C 116.980469 221.96875 116.769531 221.824219 116.527344 221.824219 L 114.59375 221.824219 C 114.453125 221.820312 114.320312 221.871094 114.222656 221.953125 C 114.125 222.039062 114.070312 222.15625 114.070312 222.277344 L 114.070312 242.101562 C 114.070312 242.351562 114.300781 242.558594 114.59375 242.558594 L 117.207031 242.558594 C 117.34375 242.558594 117.476562 242.511719 117.578125 242.425781 C 117.675781 242.339844 117.730469 242.222656 117.726562 242.101562 L 117.726562 225.523438 C 119.464844 224.601562 121.460938 224.117188 123.492188 224.121094 C 126.066406 224.121094 127.316406 225.257812 127.316406 227.601562 Z M 156.605469 242.121094 L 156.078125 243.632812 C 154.941406 246.53125 153.050781 246.925781 151.183594 246.925781 C 150.511719 246.949219 149.835938 246.894531 149.179688 246.765625 C 149.023438 246.726562 148.855469 246.753906 148.726562 246.839844 C 148.597656 246.925781 148.523438 247.058594 148.523438 247.199219 L 148.523438 248.804688 C 148.523438 249.011719 148.675781 249.1875 148.902344 249.246094 C 149.492188 249.378906 150.226562 249.441406 151.289062 249.441406 C 154.183594 249.441406 157.429688 249.054688 159.417969 244.40625 L 168.632812 222.582031 C 168.691406 222.441406 168.667969 222.285156 168.570312 222.164062 C 168.476562 222.042969 168.316406 221.96875 168.148438 221.96875 L 165.265625 221.96875 C 165.046875 221.96875 164.847656 222.09375 164.777344 222.277344 L 158.496094 238.101562 L 151.722656 222.265625 C 151.648438 222.085938 151.453125 221.96875 151.238281 221.96875 L 148.40625 221.96875 C 148.238281 221.96875 148.078125 222.042969 147.980469 222.167969 C 147.882812 222.289062 147.863281 222.449219 147.925781 222.589844 Z M 7.597656 233.265625 L 13.296875 219.660156 L 19.035156 233.265625 Z M 15.351562 215.699219 C 15.273438 215.523438 15.078125 215.40625 14.863281 215.40625 L 11.828125 215.40625 C 11.609375 215.40625 11.417969 215.523438 11.34375 215.699219 L 0.0351562 241.9375 C -0.0273438 242.078125 -0.00390625 242.234375 0.09375 242.355469 C 0.1875 242.480469 0.347656 242.554688 0.515625 242.554688 L 3.347656 242.554688 C 3.566406 242.554688 3.757812 242.4375 3.832031 242.257812 L 6.484375 235.921875 L 20.152344 235.921875 L 22.808594 242.257812 C 22.882812 242.4375 23.078125 242.558594 23.296875 242.558594 L 26.175781 242.558594 C 26.347656 242.558594 26.507812 242.484375 26.605469 242.363281 C 26.703125 242.238281 26.722656 242.082031 26.664062 241.941406 Z M 51.296875 221.601562 C 45.15625 221.601562 41.777344 223.664062 41.777344 227.410156 L 41.777344 237.105469 C 41.777344 240.855469 45.152344 242.914062 51.296875 242.914062 C 57.117188 242.914062 60.457031 240.800781 60.457031 237.109375 L 60.457031 234.738281 C 60.457031 234.488281 60.222656 234.285156 59.9375 234.285156 L 57.371094 234.285156 C 57.234375 234.285156 57.101562 234.332031 57.003906 234.417969 C 56.90625 234.5 56.851562 234.617188 56.851562 234.738281 L 56.851562 236.707031 C 56.851562 239.890625 53.371094 240.371094 51.296875 240.371094 C 47.351562 240.371094 45.429688 239.171875 45.429688 236.707031 L 45.429688 227.816406 C 45.429688 225.25 47.183594 224.152344 51.296875 224.152344 C 55.035156 224.152344 56.851562 225.355469 56.851562 227.816406 L 56.851562 230.148438 C 56.851562 230.398438 57.082031 230.605469 57.371094 230.605469 L 59.9375 230.605469 C 60.222656 230.605469 60.457031 230.402344 60.457031 230.148438 L 60.457031 227.417969 C 60.457031 223.722656 57.121094 221.605469 51.296875 221.605469 Z M 104.753906 231.113281 L 93.332031 231.113281 L 93.332031 228.140625 C 93.332031 225.28125 94.925781 224.117188 98.832031 224.117188 C 102.761719 224.117188 104.753906 225.46875 104.753906 228.140625 Z M 98.832031 221.601562 C 95.984375 221.601562 93.734375 222.128906 92.140625 223.179688 C 90.527344 224.242188 89.675781 225.820312 89.675781 227.738281 L 89.675781 236.777344 C 89.675781 238.699219 90.527344 240.273438 92.140625 241.335938 C 93.734375 242.382812 95.984375 242.914062 98.832031 242.914062 C 104.828125 242.914062 108.40625 240.621094 108.40625 236.777344 L 108.40625 235.539062 C 108.410156 235.417969 108.355469 235.300781 108.257812 235.214844 C 108.160156 235.128906 108.027344 235.082031 107.890625 235.082031 L 105.273438 235.082031 C 105.132812 235.082031 105 235.128906 104.90625 235.214844 C 104.808594 235.300781 104.753906 235.417969 104.753906 235.539062 L 104.753906 236.375 C 104.753906 239.046875 102.761719 240.402344 98.832031 240.402344 C 94.925781 240.402344 93.332031 239.234375 93.332031 236.375 L 93.332031 233.554688 L 107.890625 233.554688 C 108.027344 233.554688 108.160156 233.503906 108.257812 233.417969 C 108.355469 233.332031 108.410156 233.21875 108.40625 233.097656 L 108.40625 227.742188 C 108.40625 223.894531 104.828125 221.605469 98.832031 221.605469 Z M 76.898438 221.601562 C 74.238281 221.601562 71.664062 222.363281 69.777344 223.042969 L 69.777344 215.867188 C 69.777344 215.746094 69.722656 215.628906 69.625 215.542969 C 69.523438 215.457031 69.390625 215.410156 69.253906 215.410156 L 66.636719 215.410156 C 66.351562 215.410156 66.117188 215.613281 66.117188 215.867188 L 66.117188 242.101562 C 66.117188 242.351562 66.351562 242.558594 66.636719 242.558594 L 69.253906 242.558594 C 69.394531 242.558594 69.527344 242.511719 69.625 242.425781 C 69.722656 242.339844 69.777344 242.222656 69.777344 242.101562 L 69.777344 225.777344 C 71.144531 225.21875 74 224.195312 76.425781 224.195312 C 78.96875 224.195312 80.148438 225.195312 80.148438 227.351562 L 80.148438 242.105469 C 80.148438 242.355469 80.382812 242.5625 80.667969 242.5625 L 83.285156 242.5625 C 83.421875 242.5625 83.554688 242.511719 83.652344 242.425781 C 83.75 242.339844 83.804688 242.226562 83.800781 242.105469 L 83.800781 226.941406 C 83.800781 223.5 81.351562 221.605469 76.898438 221.605469 Z M 76.898438 221.601562 "/>
</g>
</defs>
<g id="surface1">
<use xlink:href="#surface7" mask="url(#mask0)"/>
<use xlink:href="#surface14" mask="url(#mask1)"/>
</g>
</svg>
